X:13
T:The Swan
C:Bob Massie
H:1997
N:For Alison, my wife, who has been compared to a swan - all very calm on
N:the surface, but underneath it all, she's paddling like hell to keep
N:going.
M:4/4
L:1/8
Q:1/4=85     %Tempo
K:D
[aA]b ag fg fe |de f/d3/2 A2 FD |GB dB AF d2 |BA G/F3/2 [E4A,4] |
[aA]b ag fg fe |de f/d3/2 A2 FD |GB dB A/F3/2 GE |F2 D2 D2 FG |
AB AF DF Ad |BA G/B3/2 A2 FD |GB dG F/A3/2 dF |ED CB, A,4 |
AB AF DF Ad |BA G/B3/2 A2 FD |GB dB AG FE |F2 D2 D4 |]
